svgs/thin/pallet-boxes.svg

<svg xmlns="http://www.w3.org/2000/svg" viewBox="0 0 640 512"><!--! Font Awesome Pro 6.3.0 by @fontawesome - https://fontawesome.com License - https://fontawesome.com/license (Commercial License) Copyright 2023 Fonticons, Inc. --><path d="M632 496h-80v-128h80c4.406 0 8-3.578 8-8S636.4 352 632 352H8C3.594 352 0 355.6 0 360s3.594 8 8 8h80v128h-80C3.594 496 0 499.6 0 504S3.594 512 8 512h624c4.406 0 8-3.578 8-8S636.4 496 632 496zM312 496h-208v-128h208V496zM536 496h-208v-128h208V496zM112 288h160C298.5 288 320 266.5 320 240v-192C320 21.49 298.5 0 272 0h-160C85.49 0 64 21.49 64 48v192C64 266.5 85.49 288 112 288zM80 48c0-17.64 14.36-32 32-32h160c17.64 0 32 14.36 32 32v192c0 17.64-14.36 32-32 32h-160c-17.64 0-32-14.36-32-32V48zM432 288h96C554.5 288 576 266.5 576 240v-128C576 85.49 554.5 64 528 64h-96C405.5 64 384 85.49 384 112v128C384 266.5 405.5 288 432 288zM400 112c0-17.64 14.36-32 32-32h96c17.64 0 32 14.36 32 32v128c0 17.64-14.36 32-32 32h-96c-17.64 0-32-14.36-32-32V112z"/></svg>

<svg xmlns="http://www.w3.org/2000/svg" viewBox="0 0 640 512"><!-- Font Awesome Pro 6.0.0-alpha2 by @fontawesome - https://fontawesome.com License - https://fontawesome.com/license (Commercial License) --><path d="M632 496H552V368H632C636 368 640 364 640 360S636 352 632 352H8C4 352 0 356 0 360S4 368 8 368H88V496H8C4 496 0 500 0 504S4 512 8 512H632C636 512 640 508 640 504S636 496 632 496ZM312 496H104V368H312V496ZM536 496H328V368H536V496ZM112 288H272C298 288 320 266 320 240V48C320 22 298 0 272 0H112C86 0 64 22 64 48V240C64 266 86 288 112 288ZM80 48C80 30 94 16 112 16H272C290 16 304 30 304 48V240C304 258 290 272 272 272H112C94 272 80 258 80 240V48ZM432 288H528C554 288 576 266 576 240V112C576 86 554 64 528 64H432C406 64 384 86 384 112V240C384 266 406 288 432 288ZM400 112C400 94 414 80 432 80H528C546 80 560 94 560 112V240C560 258 546 272 528 272H432C414 272 400 258 400 240V112Z"/></svg>
